X:578
T: Bravo, c' est bon! (276), S. 588
N: T0466
O: Luxemburg
S: Singendes Volk, Esch-Alzette, 1937 posth.]
N: Junglinster, hhh Vater des Verfassers, um 1890
R: ???]
M: 6/8
L: 1/16
K: G
 | G4A2B4B2 | B2A2A2G4z2
B4c2d4d2 | d2c2c2e2d2d2
B4c2d4d2 | d2c2c2B4
G2 | e2e2eee2e2e2 | e2d2d2d4
d2 | c2c2cce2d2c2 | c2B2B2B4z2
B4c2d4d2 | d2c2c2e2d2d2
B4c2d4d2 | d2c2c2B2z4

